X:202
%%etbk:tnset id:65,pos:1,rep:3x,ant:
%%etbk:tnset id:263,pos:8,rep:3x,ant:
%%etbk:wsite http://www.thesession.org/tunes/display/115
%%etbk:pldat 2016-06-22T16:08,2016-06-20T18:28,2016-06-16T19:10,2016-03-05T15:32,2016-02-23T17:35,2015-06-22T18:38,2015-02-16T19:14,2014-08-21T19:04,2014-08-20T19:21,2014-08-14T19:36,2014-08-13T19:59,2014-08-12T19:26,2014-08-11T19:48,2014-08-10T11:43,2014-07-31T18:38,2014-06-25T15:49,2014-06-23T18:34,2014-06-13T15:43,2014-06-03T16:01,2014-04-26T17:03,2014-04-06T16:00,2014-02-26T16:57,2013-05-05T14:22
T: Over The Moor To Maggie
M: 4/4
L: 1/8
R: reel
K: Gmaj
|: "G"!1!G3A !3!B2!1!Bd | !3!ef!5!ge !2!d!1!B!3!A!2!G | "D"!1!E!3!A{B}AG ABAG | !1!E!3!AAG AcB!3!A |
"G"!1!G!2!F!1!GA !3!BA!3!B!4!d | !3!ef!5!ge !2!d!1!B!3!A!2!G | "C"!1!D!2!G!1!G!2!G !4!B!2!GA!2!G | "G"!1!E!3!G{A}GF G4:|
|: "G"!5!b!3!g!2!g!3!g !4!ag!2!f!4!a | !3!gag!2!e !1!d3!3!g | "D"!1!e!3!a{b}ag !3!abag | !1!e!3!aa!2!g !4!a2!3!ga |
"G"!5!b2!3!gg !4!agfa | !3!gag!2!e d3!3!g | "C"!1!e!2!g!1!g!2!g !4!bgag | "G"!1!e!3!g{a}gf !3!g4:|
|: "C"!5!e3!3!c "G"!4!d2d!2!B | "C"!3!c2c!1!A "G"!2!BB!1!A!2!G | "D"!1!E!3!AAG ABAG | !1!E!3!AA!2!G !1!ABc!4!d |
"C"!5!e3!3!c "G"!4!d2d!2!B | "C"!3!c2c!1!A "G"!2!BB!1!A!2!G | "C"!1!D!2!G!1!G!2!G !4!B!2!GAG | "G"!1!E!3!GGF !3!G4:|


